X:1
T:Title
%%score { ( 1 3 ) | ( 2 4 ) }
L:1/8
Q:1/4=100
M:4/4
K:F
V:1 treble nm="Grand Piano"
V:3 treble 
V:2 bass 
V:4 bass 
V:1
 A2 c2 A2 F2 | G2 C2 F4 | [EG]2 [FA]2 [GB]2 [EG]2 | [_Ad]2 [A=B]2 [=Ac]4 | A2 c2 A2 F2 | G2 C2 F4 | %6
w: C.~Austin~Miles * * *||||||
 G2 A2 =B2 A2 |[M:9/8] G2 d- d [Cc]2- [Cc]3 |[M:4/4] z2 A6 | z2 A6 | A3 A A2 A2 | [CEB]6 z2 | %12
w: ||||||
 z2 G6 | z2 G6 | [CAc]3 [CAc] [CAc]2 [CGB]2 | [CFA]6 z2 | z2 A6 | z2 A6 | F3 F G2 F2 | [Dd]6 z2 | %20
w: ||||||||
 [Dd]4 [Fd]4 | [Fc]2 [FA]2 z4 | %22
w: ||
 [EG]6 [B,EG]2[Q:1/4=99][Q:1/4=97][Q:1/4=96][Q:1/4=94][Q:1/4=93][Q:1/4=91][Q:1/4=90][Q:1/4=88][Q:1/4=87][Q:1/4=85][Q:1/4=84][Q:1/4=82][Q:1/4=81][Q:1/4=79][Q:1/4=78][Q:1/4=76] | %23
w: |
 [A,CF]6 z2 |] %24
w: |
V:2
 [F,CF]2 [F,A,F]2 [F,CF]2 [F,A,C]2 | [C,B,C]2 [C,B,]2 [F,A,C]4 | [C,C]2 [C,C]2 [C,C]2 [C,C]2 | %3
 [F,=B,]2 [F,D]2 [F,C]4 | [F,CF]2 [F,A,F]2 [F,CF]2 [F,A,C]2 | [C,B,C]2 [E,B,]2 [D,A,D]4 | %6
 [G,=B,F]2 [G,CF]2 [G,DF]2 [G,CF]2 |[M:9/8] [G,=B,F]2 [G,B,F]- [G,B,F][K:bass] z z B3 | %8
[M:4/4][K:treble] z2 F6[K:bass] | z2 F6[K:bass] | [F,CF]3 [F,CF] [^F,C_E]2 [F,CE]2 | %11
 G,2 E,2 C,2 z2 | z2 E6[K:bass] | z2 E6[K:bass] | C,3 C, D,2 E,2 | F,6 z2 | z2 F6[K:bass] | %17
 z2 F6[K:bass] | [F,A,_E]3 [F,A,E] [F,B,E]2 [F,A,E]2 | [B,,B,]6 z2 | [B,,B,]4 [=B,,_A,]4 | %21
 [C,A,]2 [C,C]2 z4 | C2 z2 z4 | F,6 z2 |] %24
V:3
 x8 | x8 | x8 | x8 | x8 | x8 | x8 |[M:9/8] z3 z E2 z3 |[M:4/4] c2 z2 C2 C2 | c2 z2 C2 C2 | x8 | %11
 x8 | B2 z2 C2 C2 | B2 z2 C2 C2 | x8 | x8 | c2 z2 C2 C2 | c2 z2 C2 C2 | x8 | x8 | x8 | x8 | x8 | %23
 x8 |] %24
V:4
 x8 | x8 | x8 | x8 | x8 | x8 | x8 |[M:9/8] z3 z[K:bass] C,2- C,3 | %8
[M:4/4][K:treble] A2 z2[K:bass] F,2 F,2 | A2 z2[K:bass] F,2 F,2 | x8 | x8 | G2 z2[K:bass] C,2 C,2 | %13
 G2 z2[K:bass] C,2 C,2 | x8 | x8 | A2 z2[K:bass] F,2 F,2 | A2 z2[K:bass] F,2 F,2 | x8 | x8 | x8 | %21
 x8 | C,2- [C,-=B,]2 [C,_B,]2 C,2 | x8 |] %24

